src/svg/repo-clone.svg

<svg height="16" width="16" xmlns="http://www.w3.org/2000/svg" viewBox="0 0 16 16">
  <path d="M15 0H9v7c0 0.55 0.45 1 1 1h1v1h1v-1h3c0.55 0 1-0.45 1-1V1c0-0.55-0.45-1-1-1zM11 7h-1v-1h1v1z m4 0H12v-1h3v1z m0-2H11V1h4v4z m-11 0h-1v-1h1v1z m0-2h-1v-1h1v1zM2 1h6V0H1C0.45 0 0 0.45 0 1v12c0 0.55 0.45 1 1 1h2v2l1.5-1.5 1.5 1.5V14h5c0.55 0 1-0.45 1-1V10H2V1z m9 10v2H6v-1H3v1H1V11h10zM3 8h1v1h-1v-1z m1-1h-1v-1h1v1z" />
</svg>

<?xml version="1.0" encoding="UTF-8" standalone="no"?>
<svg width="16px" height="16px" viewBox="0 0 16 16" version="1.1" xmlns="http://www.w3.org/2000/svg" xmlns:xlink="http://www.w3.org/1999/xlink">
    <!-- Generator: Sketch 3.7.1 (28215) - http://www.bohemiancoding.com/sketch -->
    <title>repo-clone</title>
    <desc>Created with Sketch.</desc>
    <defs></defs>
    <g id="Octicons" stroke="none" stroke-width="1" fill="none" fill-rule="evenodd">
        <g id="repo-clone" fill="#000000">
            <path d="M15,0 L9,0 L9,7 C9,7.55 9.45,8 10,8 L11,8 L11,9 L12,9 L12,8 L15,8 C15.55,8 16,7.55 16,7 L16,1 C16,0.45 15.55,0 15,0 L15,0 Z M11,7 L10,7 L10,6 L11,6 L11,7 L11,7 Z M15,7 L12,7 L12,6 L15,6 L15,7 L15,7 Z M15,5 L11,5 L11,1 L15,1 L15,5 L15,5 Z M4,5 L3,5 L3,4 L4,4 L4,5 L4,5 Z M4,3 L3,3 L3,2 L4,2 L4,3 L4,3 Z M2,1 L8,1 L8,0 L1,0 C0.45,0 0,0.45 0,1 L0,13 C0,13.55 0.45,14 1,14 L3,14 L3,16 L4.5,14.5 L6,16 L6,14 L11,14 C11.55,14 12,13.55 12,13 L12,10 L2,10 L2,1 L2,1 Z M11,11 L11,13 L6,13 L6,12 L3,12 L3,13 L1,13 L1,11 L11,11 L11,11 Z M3,8 L4,8 L4,9 L3,9 L3,8 L3,8 Z M4,7 L3,7 L3,6 L4,6 L4,7 L4,7 Z" id="Shape"></path>
        </g>
    </g>
</svg>
